!!!COM: Joplin, Scott
!!!CDT: 1868/11/24/-1917/04/01/
!!!OTL: Cleopha 
!!!ONB: March and Two-Step
!!!ODT: 1902///
**kern	**kern	**dynam
*staff2	*staff1	*staff1
*Ipiano	*Ipiano	*Ipiano
*>[I,A,A1,A,A2,B,B1,B,B2,C,D,D1,D,D2,E,E1,E,E2]	*>[I,A,A1,A,A2,B,B1,B,B2,C,D,D1,D,D2,E,E1,E,E2]	*>[I,A,A1,A,A2,B,B1,B,B2,C,D,D1,D,D2,E,E1,E,E2]
*>norep[I,A,A2,B,B2,C,D,D2,E,E2]	*>norep[I,A,A2,B,B2,C,D,D2,E,E2]	*>norep[I,A,A2,B,B2,C,D,D2,E,E2]
*>I	*>I	*>I
*clefF4	*clefG2	*clefG2
*k[b-]	*k[b-]	*k[b-]
*M2/4	*M2/4	*M2/4
*MM116	*MM116	*MM116
8r	8cc\	mf
=1	=1	=1
*	*^	*
2r	8ff/L	2f\ 2a\ 2cc\	.
.	16ff/L	.	.
.	16gg/JJ	.	.
.	8ff/L	.	.
.	8ff/J	.	.
=2	=2	=2	=2
2r	8ff/L	4f\ 4b-\ 4dd\	.
.	16ff/L	.	.
.	16gg/JJ	.	.
.	8ff/L	4f\ 4b-\ 4dd-\	.
.	8ff/J	.	.
=3	=3	=3	=3
2r	8ff/L	4f\ 4a\ 4cc\	.
.	16ff/L	.	.
.	16gg/JJ	.	.
.	16gg#/LL	4d-\ 4f\ 4bn\	.
.	16aa/	.	.
.	16bb-/	.	.
.	16bbn/JJ	.	.
=4	=4	=4	=4
8r	8cc/ 8ccc/	8c\ 8e\ 8g\	.
8CC/ 8C/L	8c/ 8cc/L	4.r	f
8DD/ 8D/	8d/ 8dd/	.	.
8EE/ 8E/J	8e/ 8ee/J	.	.
*	*v	*v	*
=5!|:	=5!|:	=5!|:
*>A	*>A	*>A
*	*^	*
4FF/ 4F/	4f/ 4ff/	8r	f
.	.	8a\ 8cc\	.
4FF#/ 4F#/	4d#/ 4dd#/	8r	.
.	.	8a\ 8cc\	.
=6	=6	=6	=6
8GG\ 8G\L	8r	2e\ 2b-\ 2cc\ 2ee\	.
8B-\ 8c\ 8e\J	(16ccc/LL	.	p
.	16bbn/JJ	.	.
8CC\ 8C\L	16ccc/LL	.	.
.	16ddd/J	.	.
8B-\ 8c\ 8e\J	8ccc/J)	.	.
=7	=7	=7	=7
4FF/ 4F/	4f/ 4ff/	8r	f
.	.	8a\ 8cc\	.
4FF#/ 4F#/	4d#/ 4dd#/	8r	.
.	.	8a\ 8cc\	.
=8	=8	=8	=8
8GG\ 8G\L	8r	2e\ 2b-\ 2cc\ 2ee\	.
8B-\ 8c\ 8e\J	(16cc/LL	.	p
.	16dd/JJ	.	.
8CC\ 8C\L	16ee/LL	.	.
.	16ff/J	.	.
8B-\ 8c\ 8e\J	8gg/J)	.	.
=9	=9	=9	=9
8GG\ 8G\L	4b-/ 4bb-/	8r	f
8B-\ 8c\ 8e\J	.	8ee\ 8gg\	.
8C\ 8c\L	4g/ 4gg/	8r	.
8BB-\ 8B-\J	.	8ee\ 8gg\	.
=10	=10	=10	=10
8AA\ 8A\L	8r	2cc\ 2ccc\	.
8A\ 8c\ 8e\J	(16aa/LL	.	.
.	16gg#/JJ	.	.
8FF#\ 8F#\L	16aa/LL	.	.
.	16bbn/J	.	.
8A\ 8c\ 8e-\J	8ccc/J)	.	.
=11	=11	=11	=11
8GG\ 8G\L	4g/ 4gg/	8r	.
8G\ 8c\ 8e\J	.	8cc\ 8ee\	.
8GG\L	4r	8bn\ 8bbn\L	.
8G\ 8Bn\ 8f\J	.	8dd\ 8ddd\J	.
*	*v	*v	*
=12	=12	=12
8c\ 8e\	8cc\ 8ccc\	.
8CC/ 8C/L	8c/ 8cc/L	f
8DD/ 8D/	8d/ 8dd/	.
8EE/ 8E/J	8e/ 8ee/J	.
=13	=13	=13
*	*^	*
4FF/ 4F/	4f/ 4ff/	8r	.
.	.	8a\ 8cc\	.
4FF#/ 4F#/	4d#/ 4dd#/	8r	.
.	.	8a\ 8cc\	.
=14	=14	=14	=14
8GG\ 8G\L	8r	2e\ 2b-\ 2cc\ 2ee\	.
8B-\ 8c\ 8e\J	(16ccc/LL	.	p
.	16bbn/JJ	.	.
8CC\ 8C\L	16ccc/LL	.	.
.	16ddd/J	.	.
8B-\ 8c\ 8e\J	8ccc/J)	.	.
=15	=15	=15	=15
4FF/ 4F/	4f/ 4ff/	8r	f
.	.	8a\ 8cc\	.
4FF#/ 4F#/	4d#/ 4dd#/	8r	.
.	.	8a\ 8cc\	.
=16	=16	=16	=16
8GG\ 8G\L	8r	2e\ 2b-\ 2cc\ 2ee\	.
8B-\ 8c\ 8e\J	(16cc/LL	.	p
.	16dd/JJ	.	.
8CC\ 8C\L	16ee/LL	.	.
.	16ff/J	.	.
8B-\ 8c\ 8e\J	8gg/J)	.	.
=17	=17	=17	=17
8GG\ 8G\L	4b-/ 4bb-/	8r	f
8B-\ 8c\ 8e\J	.	8ee\ 8gg\	.
8C\ 8c\L	4g/ 4gg/	8r	.
8BB-\ 8B-\J	.	8ee\ 8gg\	.
=18	=18	=18	=18
8AA\ 8A\L	4cc/ 4ccc/	8r	.
8A\ 8c\ 8f\J	.	8ff\ 8aa\	.
4BBn\ 4Bn\	4r	4dd\ 4ff\ 4aa-\ 4ddd\	.
=19	=19	=19	=19
4C\ 4c\	4f/ 4ff/	8r	.
.	.	8a\ 8cc\	.
4CC/ 4C/	4g/ 4gg/	8r	.
.	.	8e\ 8b-\ 8cc\	.
*	*v	*v	*
=20	=20	=20
*>A1	*>A1	*>A1
8FF/ 8F/	8f\ 8a\ 8cc\ 8ff\	.
8CC/ 8C/L	8c/ 8cc/L	.
8DD/ 8D/	8d/ 8dd/	.
8EE/ 8E/J	8e/ 8ee/J	.
=21:|!	=21:|!	=21:|!
*>A2	*>A2	*>A2
8FF\ 8F\L	4f\ 4a\ 4cc\ 4ff\	.
8C\ 8c\J	.	.
8AA\ 8A\L	8cc\L	f
8GG\ 8G\J	8cc#\J	.
=22!|:	=22!|:	=22!|:
*>B	*>B	*>B
8FF#\ 8F#\L	8.dd\L	.
8A\ 8c\ 8d\J	.	.
.	16cc\Jk	.
8DD\L	[4f#/	.
8A\ 8c\ 8d\J	.	.
=23	=23	=23
8AA\L	16f#/LL]	.
.	16f#/	.
8F#\ 8c\ 8d\J	16a/	.
.	16cc/JJ	.
8DD\L	8f#/ 8ee-/L	.
8A\ 8c\ 8d\J	8f#/ 8dd/J	.
=24	=24	=24
8GG\L	8.g/ 8.dd/L	.
8G\ 8B-\ 8d\J	.	.
.	16b-/Jk	.
8DD\L	[4g/	.
8G\ 8B-\ 8d\J	.	.
=25	=25	=25
8GG\L	16g\LL]	.
.	16dd\	.
8G\ 8B-\ 8d\J	16gg\	.
.	16bb-\JJ	.
8DD/ 8D/L	8dd\ 8gg\ 8bb-\ 8ddd\L	.
8DD-/ 8D-/J	8dd#\ 8gg\ 8bb-\ 8ddd#\J	.
=26	=26	=26
8CC\ 8C\L	8.ee\ 8.gg\ 8.bb-\ 8.eee\L	.
8B-\ 8c\ 8e\J	.	.
.	16bb-\Jk	.
8EE\ 8E\L	[4ee\ [4gg\ [4bb-\ [4ddd\	.
8B-\ 8c\ 8e\J	.	.
=27	=27	=27
8GG\ 8G\L	16ee\] 16gg\] 16bb-\] 16ddd\LL]	.
.	16ee\	.
8B-\ 8c\ 8e\J	16gg\	.
.	16bb-\JJ	.
8C\L	8ee\ 8bb-\ 8ddd\L	.
8B-\ 8c\ 8e\J	8ee\ 8bb-\ 8ddd\J	.
=28	=28	=28
8F\L	8.ff\ 8.aa\ 8.ddd\L	.
8A\ 8c\ 8f\J	.	.
.	16aa\Jk	.
8C\L	[4ff\ [4aa\ [4ccc\	.
8A\ 8c\ 8f\J	.	.
=29	=29	=29
8FF\L	16ff\] 16aa\] 16ccc\LL]	.
.	16ccc\	.
8A\ 8c\ 8f\J	16aa\	.
.	16ff\JJ	.
8AA\ 8A\L	8cc\L	.
8GG\ 8G\J	8cc#\J	.
=30	=30	=30
8FF#\ 8F#\L	8.dd\L	.
8A\ 8c\ 8d\J	.	.
.	16cc\Jk	.
8DD\L	[4f#/	.
8A\ 8c\ 8d\J	.	.
=31	=31	=31
8AA\L	16f#/LL]	.
.	16f#/	.
8F#\ 8c\ 8d\J	16a/	.
.	16cc/JJ	.
8DD\L	8f#/ 8ee-/L	.
8A\ 8c\ 8d\J	8f#/ 8dd/J	.
=32	=32	=32
8GG\L	8.g/ 8.dd/L	.
8G\ 8B-\ 8d\J	.	.
.	16b-/Jk	.
8DD\L	[4g/	.
8G\ 8B-\ 8d\J	.	.
=33	=33	=33
8GG\L	16g\LL]	.
.	16gg\	.
8G\ 8B-\ 8d\J	16bb-\	.
.	16ddd\JJ	.
8BB-\L	8aa\ 8aaa\L	.
8G\ 8B-\ 8d-\J	8gg\ 8ggg\J	.
=34	=34	=34
8C\L	8.ff\ 8.fff\L	.
8A\ 8c\J	.	.
.	16aa\Jk	.
8BBn\L	8ee\ 8eee\L	.
8G#\ 8d\ 8f\J	8dd\ 8ddd\J	.
=35	=35	=35
8C\L	8.cc\ 8.ccc\L	.
8A\ 8c\ 8f\J	.	.
.	16ff\Jk	.
8DD/ 8D/L	8cc\ 8ff#\ 8bb-\L	.
8FF#/ 8F#/J	8cc\ 8dd\ 8aa\J	.
=36	=36	=36
8GG/L	8.bn\ 8.ffn\ 8.aa\L	.
8G/J	.	.
.	16b\ 16ff\Jk	.
8C\L	8b-\ 8ee\ 8gg\L	.
8c\J	8e\ 8b-\ 8cc\J	.
=37	=37	=37
*>B1	*>B1	*>B1
8FF\ 8F\L	4f\ 4a\ 4ff\	.
8C\ 8c\J	.	.
8AA\ 8A\L	8cc\L	.
8GG\ 8G\J	8cc#\J	.
=38:|!	=38:|!	=38:|!
*>B2	*>B2	*>B2
8FF/ 8F/	8f\ 8a\ 8ff\	.
8CC/ 8C/L	8c/ 8cc/L	.
8DD/ 8D/	8d/ 8dd/	.
8EE/ 8E/J	8e/ 8ee/J	.
=39	=39	=39
*>C	*>C	*>C
*	*^	*
4FF/ 4F/	4f/ 4ff/	8r	f
.	.	8a\ 8cc\	.
4FF#/ 4F#/	4d#/ 4dd#/	8r	.
.	.	8a\ 8cc\	.
=40	=40	=40	=40
8GG\ 8G\L	8r	2e\ 2b-\ 2cc\ 2ee\	.
8B-\ 8c\ 8e\J	(16ccc/LL	.	p
.	16bbn/JJ	.	.
8CC\ 8C\L	16ccc/LL	.	.
.	16ddd/J	.	.
8B-\ 8c\ 8e\J	8ccc/J)	.	.
=41	=41	=41	=41
4FF/ 4F/	4f/ 4ff/	8r	f
.	.	8a\ 8cc\	.
4FF#/ 4F#/	4d#/ 4dd#/	8r	.
.	.	8a\ 8cc\	.
=42	=42	=42	=42
8GG\ 8G\L	8r	2e\ 2b-\ 2cc\ 2ee\	.
8B-\ 8c\ 8e\J	(16cc/LL	.	p
.	16dd/JJ	.	.
8CC\ 8C\L	16ee/LL	.	.
.	16ff/J	.	.
8B-\ 8c\ 8e\J	8gg/J)	.	.
=43	=43	=43	=43
8GG\ 8G\L	4b-/ 4bb-/	8r	f
8B-\ 8c\ 8e\J	.	8ee\ 8gg\	.
8C\ 8c\L	4g/ 4gg/	8r	.
8BB-\ 8B-\J	.	8ee\ 8gg\	.
=44	=44	=44	=44
8AA\ 8A\L	8r	2cc\ 2ccc\	.
8A\ 8c\ 8e\J	(16aa/LL	.	.
.	16gg#/JJ	.	.
8FF#\ 8F#\L	16aa/LL	.	.
.	16bbn/J	.	.
8A\ 8c\ 8e-\J	8ccc/J)	.	.
=45	=45	=45	=45
8GG\ 8G\L	4g/ 4gg/	8r	.
8G\ 8c\ 8e\J	.	8cc\ 8ee\	.
8GG\L	4r	8bn\ 8bbn\L	.
8G\ 8Bn\ 8f\J	.	8dd\ 8ddd\J	.
*	*v	*v	*
=46	=46	=46
8c\ 8e\	8cc\ 8ccc\	.
8CC/ 8C/L	8c/ 8cc/L	f
8DD/ 8D/	8d/ 8dd/	.
8EE/ 8E/J	8e/ 8ee/J	.
=47	=47	=47
*	*^	*
4FF/ 4F/	4f/ 4ff/	8r	.
.	.	8a\ 8cc\	.
4FF#/ 4F#/	4d#/ 4dd#/	8r	.
.	.	8a\ 8cc\	.
=48	=48	=48	=48
8GG\ 8G\L	8r	2e\ 2b-\ 2cc\ 2ee\	.
8B-\ 8c\ 8e\J	(16ccc/LL	.	p
.	16bbn/JJ	.	.
8CC\ 8C\L	16ccc/LL	.	.
.	16ddd/J	.	.
8B-\ 8c\ 8e\J	8ccc/J)	.	.
=49	=49	=49	=49
4FF/ 4F/	4f/ 4ff/	8r	f
.	.	8a\ 8cc\	.
4FF#/ 4F#/	4d#/ 4dd#/	8r	.
.	.	8a\ 8cc\	.
=50	=50	=50	=50
8GG\ 8G\L	8r	2e\ 2b-\ 2cc\ 2ee\	.
8B-\ 8c\ 8e\J	(16cc/LL	.	p
.	16dd/JJ	.	.
8CC\ 8C\L	16ee/LL	.	.
.	16ff/J	.	.
8B-\ 8c\ 8e\J	8gg/J)	.	.
=51	=51	=51	=51
8GG\ 8G\L	4b-/ 4bb-/	8r	f
8B-\ 8c\ 8e\J	.	8ee\ 8gg\	.
8C\ 8c\L	4g/ 4gg/	8r	.
8BB-\ 8B-\J	.	8ee\ 8gg\	.
=52	=52	=52	=52
8AA\ 8A\L	4cc/ 4ccc/	8r	.
8A\ 8c\ 8f\J	.	8ff\ 8aa\	.
4BBn\ 4Bn\	4r	4dd\ 4ff\ 4aa-\ 4ddd\	.
=53	=53	=53	=53
4C\ 4c\	4f/ 4ff/	8r	.
.	.	8a\ 8cc\	.
4CC/ 4C/	4g/ 4gg/	8r	.
.	.	8e\ 8b-\ 8cc\	.
*	*v	*v	*
=54	=54	=54
4FF/ 4F/	4f\ 4a\ 4cc\ 4ff\	.
8FFF/ 8FF/	8ff\ 8aa\ 8ccc\ 8fff\	ff
8r	8f/	.
=55!|:	=55!|:	=55!|:
*>D	*>D	*>D
*k[b-e-]	*k[b-e-]	*k[b-e-]
8BB-\L	8.dd\L	.
8F\ 8B-\ 8d\J	.	.
.	16cc\Jk	.
8FF\L	8b-/L	.
8F\ 8B-\ 8d\J	8f/J	.
=56	=56	=56
8BB-\L	8.dd\L	.
8F\ 8B-\ 8d\J	.	.
.	16cc\Jk	.
8FF\L	16b-\LL	.
.	16f\	.
8F\ 8B-\ 8d\J	16ff\	.
.	16dd\JJ	.
=57	=57	=57
8EE-\ 8E-\L	16b-\LL	.
.	16ee-\	.
8G\ 8B-\ 8e-\J	16gg\	.
.	16bb-\JJ	.
8EE-\ 8E-\L	16ccc\LL	.
.	16bb-\	.
8G-\ 8B-\ 8e-\J	16b-\	.
.	16cc\JJ	.
=58	=58	=58
8BB-\ 8B-\L	4.f/ 4.dd/	.
8F\ 8B-\ 8d\J	.	.
8FF\L	.	.
8F\ 8B-\ 8d\J	8f/	.
=59	=59	=59
8BB-\L	8.dd\L	.
8F\ 8B-\ 8d\J	.	.
.	16cc\Jk	.
8FF\L	8b-/L	.
8F\ 8B-\ 8d\J	8f/J	.
=60	=60	=60
8FF#\L	8.dd\L	.
8A\ 8c\ 8d\J	.	.
.	16cc\Jk	.
8GG\L	8b-\L	.
8G\ 8B-\ 8d\J	8dd\J	.
=61	=61	=61
8En\L	16dd/LL	.
.	16cc/	.
8B-\ 8c\ 8en\J	16b-/	.
.	16g/JJ	.
8C\L	16en/LL	.
.	16g/	.
8B-\ 8c\ 8e\J	16b-/	.
.	16dd/JJ	.
=62	=62	=62
8F\ 8A\ 8c\ 8e-\	4.cc\	.
8FF/ 8F/L	.	.
8GG/ 8G/	.	.
8AA/ 8A/J	8f/	.
=63	=63	=63
8BB-\ 8B-\L	8.dd\L	.
8F\ 8B-\ 8d\J	.	.
.	16cc\Jk	.
8FF\L	8b-/L	.
8F\ 8B-\ 8d\J	8f/J	.
=64	=64	=64
8BB-\L	8.dd\L	.
8F\ 8B-\ 8d\J	.	.
.	16cc\Jk	.
8FF\L	16b-\LL	.
.	16f\	.
8F\ 8B-\ 8d\J	16ff\	.
.	16dd\JJ	.
=65	=65	=65
8EE-\ 8E-\L	16b-\LL	.
.	16ee-\	.
8G\ 8B-\ 8e-\J	16gg\	.
.	16bb-\JJ	.
8EE-\ 8E-\L	16ccc\LL	.
.	16bb-\	.
8G-\ 8B-\ 8e-\J	16b-\	.
.	16cc\JJ	.
=66	=66	=66
8BB-\ 8B-\L	4.f/ 4.dd/	.
8F\ 8B-\ 8d\J	.	.
8FF\L	.	.
8F\ 8B-\ 8d\J	16b-\LL	.
.	16dd\JJ	.
=67	=67	=67
8EE-\ 8E-\L	8.cc/L	.
8G\ 8B-\ 8e-\J	.	.
.	16g/Jk	.
8GG-\ 8G-\L	8b-\L	.
8G-\ 8B-\ 8e-\J	8cc\J	.
=68	=68	=68
8FF\ 8F\L	8.dd\L	.
8F\ 8B-\ 8d\J	.	.
.	16gg\Jk	.
8FF\L	16ff\LL	.
.	16dd\	.
8F\ 8B-\ 8d\J	16cc\	.
.	16b-\JJ	.
=69	=69	=69
8C\L	8.en/ 8.g/L	.
8B-\ 8c\J	.	.
.	16e-/ 16g/Jk	.
8F\L	8e-/ 8f/L	.
8A\ 8c\J	8e-/ 8f/J	.
=70	=70	=70
*>D1	*>D1	*>D1
8BB-\ 8B-\L	4.d/ 4.b-/	.
8AA\ 8A\	.	.
8GG\ 8G\	.	.
8FF\ 8F\J	8f/	.
=71:|!	=71:|!	=71:|!
*>D2	*>D2	*>D2
8BB-\ 8B-\	8d/ 8b-/	.
8r	16f\ 16ff\LL	ff
.	16f\ 16ff\JJ	.
8D\ 8d\L	8f\ 8ff\L	.
8D-\ 8d-\J	8g\ 8gg\J	.
=72!|:	=72!|:	=72!|:
*>E	*>E	*>E
8C\ 8c\L	8a\ 8ee-\ 8aa\L	.
8F\ 8A\ 8e-\J	16g#\ 16ee-\ 16gg#\L	.
.	[16a\ [16ee-\ [16aa\JJ	.
8FF\L	16a\] 16ee-\] 16aa\LL]	.
.	16g#\ 16ee-\ 16gg#\J	.
8F\ 8c\ 8e-\J	8a\ 8ee-\ 8aa\J	.
=73	=73	=73
8AA\L	8gn\ 8ee-\ 8ggn\L	.
8F\ 8c\ 8e-\J	16f\ 16ee-\ 16ff\L	.
.	[16g\ [16ee-\ [16gg\JJ	.
8FF\L	16g\] 16ee-\] 16gg\LL]	.
.	16a\ 16ee-\ 16aa\	.
8F\ 8A\ 8e-\J	16g\ 16ee-\ 16gg\	.
.	16f\ 16ee-\ 16ff\JJ	.
=74	=74	=74
8BB-\L	[4fn\ [4dd\ [4ffn\	.
8F\ 8B-\ 8d\J	.	.
8FF\L	16f\] 16dd\] 16ff\LL]	.
.	16f\	.
8F\ 8B-\ 8d\J	16b-\	.
.	16dd\JJ	.
=75	=75	=75
8BB-\L	4f\ 4ff\	.
8F\ 8B-\ 8d\J	.	.
8FF\L	8gg\ 8ggg\L	mf
8F\ 8B-\ 8d\J	8ff\ 8fff\J	.
=76	=76	=76
8C\L	[4gg\ [4ggg\	.
8F\ 8A\ 8e-\J	.	.
8FF\L	16gg\] 16ggg\LL]	.
.	16ccc\	.
8F\ 8A\ 8e-\J	16aa\	.
.	16gg\JJ	.
=77	=77	=77
8AA\L	4ff\	.
8F\ 8c\ 8e-\J	.	.
8FF\L	8ff\ 8fff\L	.
8F\ 8A\ 8e-\J	8ee-\ 8eee-\J	.
=78	=78	=78
8r	[4dd\ [4ddd\	.
8BB-\ 8D\ 8F\ 8B-\	.	.
4BB-\ 4D\ 4F\ 4B-\	16dd\] 16ddd\LL]	.
.	16bb-\	.
.	16aa\	.
.	16gg\JJ	.
=79	=79	=79
8r	4ff\	<
8E-\ 8e-\L	.	.
8D\ 8d\	8f\ 8ff\L	.
8D-\ 8d-\J	8g\ 8gg\J	.
=80	=80	=80
8C\ 8c\L	8a\ 8ee-\ 8aa\L	ff
8F\ 8A\ 8e-\J	16g#\ 16ee-\ 16gg#\L	.
.	[16a\ [16ee-\ [16aa\JJ	.
8FF\L	16a\] 16ee-\] 16aa\LL]	.
.	16g#\ 16ee-\ 16gg#\J	.
8F\ 8c\ 8e-\J	8a\ 8ee-\ 8aa\J	.
=81	=81	=81
8AA\L	8gn\ 8ee-\ 8ggn\L	.
8F\ 8c\ 8e-\J	16f\ 16ee-\ 16ff\L	.
.	[16g\ [16ee-\ [16gg\JJ	.
8FF\L	16g\] 16ee-\] 16gg\LL]	.
.	16a\ 16ee-\ 16aa\	.
8F\ 8A\ 8e-\J	16g\ 16ee-\ 16gg\	.
.	16f\ 16ee-\ 16ff\JJ	.
=82	=82	=82
8BB-\L	[4fn\ [4dd\ [4ffn\	>
8F\ 8B-\ 8d\J	.	.
8FF\L	16f\] 16dd\] 16ff\LL]	.
.	16f\	.
8F\ 8B-\ 8d\J	16b-\	.
.	16dd\JJ	.
=83	=83	=83
8BB-\ 8B-\L	4.f\ 4.b-\ 4.dd\ 4.ff\	mf
8AA-\ 8A-\J	.	.
8GG/ 8G/L	.	.
8FF/ 8F/J	16b-\LL	.
.	16dd\JJ	.
=84	=84	=84
8EE-\ 8E-\L	8.cc/L	.
8G\ 8B-\ 8e-\J	.	.
.	16g/Jk	.
8GG-\ 8G-\L	8b-\L	.
8G-\ 8B-\ 8e-\J	8cc\J	.
=85	=85	=85
8FF\ 8F\L	8.dd\L	.
8F\ 8B-\ 8d\J	.	.
.	16gg\Jk	.
8FF\L	16ff\LL	.
.	16dd\	.
8F\ 8B-\ 8d\J	16cc\	.
.	16b-\JJ	.
=86	=86	=86
8C\L	8.en/ 8.g/L	.
8B-\ 8c\J	.	.
.	16e-/ 16g/Jk	.
8F\L	8e-/ 8f/L	.
8A\ 8c\J	8e-/ 8f/J	.
=87	=87	=87
*>E1	*>E1	*>E1
8BB-\ 8B-\	8d/ 8b-/	.
8r	16f\ 16ff\LL	ff
.	16f\ 16ff\JJ	.
8D\ 8d\L	8f\ 8ff\L	.
8D-\ 8d-\J	8g\ 8gg\J	.
=88:|!	=88:|!	=88:|!
*>E2	*>E2	*>E2
8BB-\ 8B-\L	4d/ 4b-/	.
8FF\ 8F\J	.	.
8BBB-^/ 8BB-^/	8b-^\ 8dd^\ 8bb-^\	.
==	==	==
*-	*-	*-
!!!ENC: Craig Stuart Sapp
!!!END: 2008/02/23/
!!!EEV: 2012/05/23/
